ChehyunH/arm_takehome/deliverables/mirror_spiral_trajectory.csv
time_s,joint_1,joint_2,joint_3,joint_4,joint_5,joint_6
0.0,3.036938,-0.43957,-1.187488,1.56447,-1.675274,-1.627387
0.02,3.03655,-0.434098,-1.190909,1.564664,-1.675674,-1.625328
0.04,3.03655,-0.434098,-1.190909,1.564664,-1.675674,-1.625328
0.06,3.036133,-0.428191,-1.192495,1.565099,-1.676115,-1.620986
0.08,3.036133,-0.428191,-1.192495,1.565099,-1.676115,-1.620986
0.1,3.035766,-0.422926,-1.191298,1.565768,-1.676515,-1.61449
0.12,3.035766,-0.422926,-1.191298,1.565768,-1.676515,-1.61449
0.14,3.035468,-0.418594,-1.187068,1.566668,-1.67685,-1.605881
0.16,3.035468,-0.418594,-1.187068,1.566668,-1.67685,-1.605881
0.18,3.035259,-0.415485,-1.179664,1.567784,-1.677094,-1.595309
0.2,3.035259,-0.415478,-1.17964,1.567787,-1.677095,-1.595278
0.22,3.035259,-0.415478,-1.17964,1.567787,-1.677095,-1.595278
0.24,3.035155,-0.413877,-1.16939,1.569053,-1.677223,-1.583359
0.26,3.035153,-0.413843,-1.168945,1.569104,-1.677226,-1.582878
0.28,3.035153,-0.413843,-1.168945,1.569104,-1.677226,-1.582878
0.3,3.035158,-0.413821,-1.156748,1.570412,-1.677231,-1.570589
0.32,3.035166,-0.413918,-1.155017,1.570587,-1.677224,-1.568946
0.34,3.035166,-0.413918,-1.155017,1.570587,-1.677224,-1.568946
0.36,3.035269,-0.415356,-1.141502,1.571878,-1.677113,-1.556801
0.38,3.035306,-0.415885,-1.138001,1.572195,-1.677071,-1.553812
0.4,3.035306,-0.415885,-1.138001,1.572195,-1.677071,-1.553812
0.42,3.035493,-0.418623,-1.123621,1.573434,-1.676858,-1.542104
0.44,3.035577,-0.419863,-1.118156,1.573882,-1.676761,-1.537856
0.46,3.035577,-0.419863,-1.118156,1.573882,-1.676761,-1.537856
0.48,3.035837,-0.423747,-1.103233,1.575047,-1.676458,-1.526756
0.5,3.03598,-0.425899,-1.095859,1.575595,-1.676291,-1.521505
0.52,3.03598,-0.425899,-1.095859,1.575595,-1.676291,-1.521505
0.54,3.036301,-0.4308,-1.08062,1.576672,-1.675912,-1.511111
0.56,3.036507,-0.433957,-1.071602,1.577278,-1.675669,-1.50522
0.58,3.036507,-0.433957,-1.071602,1.577278,-1.675669,-1.50522
0.6,3.036883,-0.439781,-1.056197,1.57826,-1.675226,-1.495589
0.62,3.037148,-0.443917,-1.045989,1.578876,-1.674913,-1.489486
0.64,3.037148,-0.443917,-1.045989,1.578876,-1.674913,-1.489486
0.66,3.037574,-0.450608,-1.030519,1.579756,-1.674412,-1.480664
0.68,3.037887,-0.455566,-1.019731,1.580333,-1.674045,-1.474805
0.7,3.037887,-0.455566,-1.019731,1.580333,-1.674045,-1.474805
0.72,3.03836,-0.46311,-1.004276,1.581104,-1.673494,-1.466857
0.74,3.038703,-0.468611,-0.993631,1.581598,-1.673097,-1.461689
0.76,3.038703,-0.468611,-0.993631,1.581598,-1.673097,-1.461689
0.78,3.039226,-0.477027,-0.978288,1.582249,-1.672499,-1.454734
0.8,3.039575,-0.482676,-0.968572,1.582623,-1.672104,-1.45065
0.82,3.039575,-0.482676,-0.968572,1.582623,-1.672104,-1.45065
0.84,3.040151,-0.492016,-0.953512,1.583132,-1.671462,-1.444908
0.86,3.040477,-0.497322,-0.945491,1.583365,-1.671104,-1.442183
0.88,3.040477,-0.497322,-0.945491,1.583365,-1.671104,-1.442183
0.9,3.041112,-0.507654,-0.931035,1.583697,-1.670421,-1.438047
0.92,3.041383,-0.51206,-0.925341,1.583789,-1.670135,-1.436756
0.94,3.041383,-0.51206,-0.925341,1.583789,-1.670135,-1.436756
0.96,3.042074,-0.523251,-0.912308,1.583879,-1.669427,-1.434914
0.98,3.042268,-0.526381,-0.909047,1.583866,-1.669233,-1.434786
1.0,3.042268,-0.526381,-0.909047,1.583866,-1.669233,-1.434786
1.02,3.042952,-0.537348,-0.899251,1.583657,-1.66857,-1.43597
1.04,3.043105,-0.539778,-0.897452,1.583574,-1.668427,-1.436607
1.06,3.043105,-0.539778,-0.897452,1.583574,-1.668427,-1.436607
1.08,3.043765,-0.55014,-0.891808,1.583025,-1.667833,-1.441355
1.1,3.043871,-0.551782,-0.891253,1.582905,-1.667741,-1.442449
1.12,3.043871,-0.551782,-0.891253,1.582905,-1.667741,-1.442449
1.14,3.044489,-0.561181,-0.890742,1.581965,-1.667233,-1.451386
1.16,3.044543,-0.561991,-0.890945,1.581861,-1.667191,-1.452403
1.18,3.044543,-0.561991,-0.890945,1.581861,-1.667191,-1.452403
1.2,3.045073,-0.569683,-0.896289,1.58054,-1.666803,-1.465505
1.22,3.045102,-0.570089,-0.896777,1.580451,-1.666783,-1.466403
1.24,3.045102,-0.570089,-0.896777,1.580451,-1.666783,-1.466403
1.26,3.045484,-0.575281,-0.906957,1.578933,-1.666543,-1.481849
1.28,3.045529,-0.575863,-0.908733,1.578702,-1.666517,-1.484218
1.3,3.045529,-0.575863,-0.908733,1.578702,-1.666517,-1.484218
1.32,3.045764,-0.578701,-0.922396,1.577097,-1.666404,-1.500797
1.34,3.04581,-0.579194,-0.926544,1.576648,-1.666388,-1.505458
1.36,3.04581,-0.579194,-0.926544,1.576648,-1.666388,-1.505458
1.38,3.045909,-0.580035,-0.941622,1.575113,-1.666373,-1.52145
1.4,3.045931,-0.580045,-0.949717,1.574333,-1.666385,-1.529593
1.42,3.045931,-0.580045,-0.949717,1.574333,-1.666385,-1.529593
1.44,3.045924,-0.57941,-0.965312,1.572895,-1.666438,-1.544622
1.46,3.045882,-0.578443,-0.977587,1.571809,-1.666499,-1.555981
1.48,3.045882,-0.578443,-0.977587,1.571809,-1.666499,-1.555981
1.5,3.04579,-0.576705,-0.993287,1.570466,-1.666599,-1.570009
1.52,3.045657,-0.57445,-1.009368,1.569133,-1.666722,-1.583898
1.54,3.045657,-0.57445,-1.00937,1.569132,-1.666722,-1.5839
1.56,3.045657,-0.57445,-1.00937,1.569132,-1.666722,-1.5839
1.58,3.045492,-0.57183,-1.02507,1.567867,-1.66686,-1.597041
1.6,3.045253,-0.568186,-1.044032,1.566378,-1.667046,-1.612431
1.62,3.04525,-0.56815,-1.044211,1.566364,-1.667048,-1.612574
1.64,3.04525,-0.56815,-1.044211,1.566364,-1.667048,-1.612574
1.66,3.045019,-0.564751,-1.059911,1.565162,-1.66722,-1.624934
1.68,3.044669,-0.559749,-1.080758,1.563602,-1.667471,-1.640854
1.7,3.044661,-0.559634,-1.081218,1.563568,-1.667477,-1.641201
1.72,3.044661,-0.559634,-1.081218,1.563568,-1.667477,-1.641201
1.74,3.044364,-0.555489,-1.096918,1.562421,-1.667685,-1.652813
1.76,3.043906,-0.549197,-1.118812,1.560858,-1.668003,-1.668491
1.78,3.043891,-0.548993,-1.119492,1.56081,-1.668013,-1.668969
1.8,3.043891,-0.548993,-1.119492,1.56081,-1.668013,-1.668969
1.82,3.043527,-0.544083,-1.135191,1.559717,-1.668263,-1.679814
1.84,3.042966,-0.536588,-1.157382,1.558209,-1.668651,-1.694585
1.86,3.042946,-0.536325,-1.158133,1.558158,-1.668664,-1.695076
1.88,3.042946,-0.536325,-1.158133,1.558158,-1.668664,-1.695076
1.9,3.042511,-0.530581,-1.173833,1.557121,-1.668966,-1.705085
1.92,3.041857,-0.522005,-1.195602,1.555724,-1.669427,-1.71835
1.94,3.041837,-0.521739,-1.196254,1.555683,-1.669442,-1.718737
1.96,3.041837,-0.521739,-1.196254,1.555683,-1.669442,-1.718737
1.98,3.041323,-0.515043,-1.211953,1.55471,-1.669811,-1.727791
2.0,3.040594,-0.50557,-1.232558,1.55348,-1.670347,-1.738989
2.02,3.040579,-0.505372,-1.232974,1.553456,-1.670358,-1.739208
2.04,3.040579,-0.505372,-1.232974,1.553456,-1.670358,-1.739208
2.06,3.039974,-0.497536,-1.248673,1.552563,-1.670816,-1.74712
2.08,3.039198,-0.487484,-1.267281,1.55156,-1.671421,-1.755732
2.1,3.039192,-0.487405,-1.267423,1.551553,-1.671425,-1.755794
2.12,3.039192,-0.487405,-1.267423,1.551553,-1.671425,-1.755794
2.14,3.038478,-0.478137,-1.283121,1.550766,-1.672002,-1.76227
2.16,3.037704,-0.46808,-1.29874,1.550048,-1.672649,-1.767875
2.18,3.037704,-0.46808,-1.29874,1.550048,-1.672649,-1.767875
2.2,3.036855,-0.457001,-1.314293,1.549419,-1.673388,-1.772389
2.22,3.036147,-0.447723,-1.32608,1.549016,-1.674028,-1.774926
2.24,3.036147,-0.447723,-1.32608,1.549016,-1.674028,-1.774926
2.26,3.035178,-0.434932,-1.340485,1.54865,-1.674942,-1.776569
2.28,3.034562,-0.426751,-1.348626,1.548527,-1.675546,-1.776542
2.3,3.034562,-0.426751,-1.348626,1.548527,-1.675546,-1.776542
2.32,3.033605,-0.413936,-1.359633,1.548522,-1.676523,-1.774745
2.34,3.032994,-0.405685,-1.365605,1.548641,-1.677172,-1.772467
2.36,3.032994,-0.405685,-1.365605,1.548641,-1.677172,-1.772467
2.38,3.032059,-0.392937,-1.372967,1.549034,-1.678205,-1.767071
2.4,3.031493,-0.385149,-1.376311,1.549406,-1.678855,-1.762614
2.42,3.031493,-0.385149,-1.376311,1.549406,-1.678855,-1.762614
2.44,3.030592,-0.372585,-1.379574,1.550253,-1.679933,-1.753279
2.46,3.030116,-0.365853,-1.380135,1.550847,-1.680526,-1.747081
2.48,3.030116,-0.365853,-1.380135,1.550847,-1.680526,-1.747081
2.5,3.029268,-0.353691,-1.378494,1.552233,-1.681624,-1.733213
2.52,3.028916,-0.348568,-1.376594,1.552962,-1.682098,-1.726153
2.54,3.028916,-0.348568,-1.376594,1.552962,-1.682098,-1.726153
2.56,3.028192,-0.337789,-1.36925,1.554894,-1.683115,-1.707931
2.58,3.02795,-0.334084,-1.365359,1.555721,-1.683472,-1.700292
2.6,3.02795,-0.334084,-1.365359,1.555721,-1.683472,-1.700292
2.62,3.027473,-0.326593,-1.353928,1.557816,-1.684207,-1.681256
2.64,3.027264,-0.323167,-1.346275,1.55906,-1.684549,-1.670109
2.66,3.027264,-0.323167,-1.346275,1.55906,-1.684549,-1.670109
2.68,3.027011,-0.318747,-1.331574,1.56123,-1.685,-1.650867
2.7,3.026899,-0.316503,-1.319375,1.562883,-1.685235,-1.636331
2.72,3.026899,-0.316503,-1.319375,1.562883,-1.685235,-1.636331
2.74,3.026847,-0.314993,-1.303671,1.564863,-1.685402,-1.619004
2.76,3.026881,-0.314655,-1.285028,1.567054,-1.685456,-1.599897
2.78,3.026882,-0.314657,-1.284882,1.567071,-1.685456,-1.599752
2.8,3.026882,-0.314657,-1.284882,1.567071,-1.685456,-1.599752
2.82,3.026975,-0.315364,-1.26918,1.568802,-1.685401,-1.584658
2.84,3.027209,-0.317846,-1.244659,1.571342,-1.685179,-1.562474
2.86,3.027225,-0.318033,-1.243207,1.571488,-1.685161,-1.5612
2.88,3.027225,-0.318033,-1.243207,1.571488,-1.685161,-1.5612
2.9,3.027425,-0.320423,-1.227506,1.573015,-1.68494,-1.547803
2.92,3.027865,-0.326058,-1.198549,1.575672,-1.684411,-1.52433
2.94,3.027926,-0.326855,-1.194934,1.575991,-1.684336,-1.521494
2.96,3.027926,-0.326855,-1.194934,1.575991,-1.684336,-1.521494
2.98,3.028204,-0.330591,-1.179234,1.57734,-1.683985,-1.509454
3.0,3.028835,-0.339343,-1.146959,1.579963,-1.683166,-1.485788
3.02,3.028962,-0.341155,-1.140811,1.580442,-1.682997,-1.481425
3.04,3.028962,-0.341155,-1.140811,1.580442,-1.682997,-1.481425
3.06,3.029301,-0.346009,-1.125111,1.581631,-1.682547,-1.470515
3.08,3.030094,-0.357677,-1.09041,1.584119,-1.681474,-1.44735
3.1,3.030301,-0.360777,-1.081737,1.584712,-1.681192,-1.441746
3.12,3.030301,-0.360777,-1.081737,1.584712,-1.681192,-1.441746
3.14,3.030685,-0.366589,-1.066037,1.585756,-1.680667,-1.431805
3.16,3.03161,-0.380894,-1.029642,1.588044,-1.679391,-1.409601
3.18,3.031895,-0.385379,-1.018767,1.588694,-1.678996,-1.403179
3.2,3.031895,-0.385379,-1.018767,1.588694,-1.678996,-1.403179
3.22,3.032314,-0.392037,-1.003067,1.589602,-1.678416,-1.394093
3.24,3.03334,-0.408673,-0.965607,1.591649,-1.67699,-1.373174
3.26,3.03369,-0.414444,-0.953119,1.592295,-1.676504,-1.366428
3.28,3.03369,-0.414444,-0.953119,1.592295,-1.676504,-1.366428
3.3,3.034135,-0.421872,-0.937419,1.593078,-1.675885,-1.358122
3.32,3.035233,-0.440522,-0.899483,1.594858,-1.674363,-1.338761
3.34,3.035624,-0.447279,-0.886207,1.595443,-1.673822,-1.332217
3.36,3.035624,-0.447279,-0.886207,1.595443,-1.673822,-1.332217
3.38,3.036091,-0.455439,-0.870507,1.596109,-1.673178,-1.324652
3.4,3.037236,-0.475769,-0.832719,1.597602,-1.671612,-1.307138
3.42,3.037637,-0.483005,-0.819692,1.598081,-1.671067,-1.301331
3.44,3.037637,-0.483005,-0.819692,1.598081,-1.671067,-1.301331
3.46,3.038125,-0.491905,-0.803993,1.598631,-1.670408,-1.294512
3.48,3.039295,-0.513533,-0.767124,1.599816,-1.668848,-1.279235
3.5,3.039669,-0.520541,-0.755556,1.600155,-1.668356,-1.274666
3.52,3.039669,-0.520541,-0.755556,1.600155,-1.668356,-1.274666
3.54,3.040184,-0.530257,-0.739857,1.600587,-1.667686,-1.268672
3.56,3.041359,-0.552677,-0.705017,1.601428,-1.666188,-1.256234
3.58,3.041666,-0.558573,-0.696179,1.601614,-1.665806,-1.25329
3.6,3.041666,-0.558573,-0.696179,1.601614,-1.665806,-1.25329
3.62,3.042222,-0.569322,-0.68048,1.601909,-1.665123,-1.248337
3.64,3.043378,-0.59171,-0.649463,1.602348,-1.663756,-1.239708
3.66,3.043576,-0.595548,-0.644387,1.602399,-1.663529,-1.23847
3.68,3.043576,-0.595548,-0.644387,1.602399,-1.663529,-1.23847
3.7,3.044214,-0.60786,-0.628722,1.6025,-1.66282,-1.235124
3.72,3.045286,-0.628334,-0.604872,1.602454,-1.661701,-1.231768
3.74,3.045358,-0.629712,-0.603367,1.602441,-1.661629,-1.231644
3.76,3.045358,-0.629712,-0.603367,1.602441,-1.661629,-1.231644
3.78,3.046061,-0.642806,-0.590141,1.602219,-1.660962,-1.231533
3.8,3.046963,-0.659075,-0.576487,1.601682,-1.660193,-1.234183
3.82,3.046975,-0.659282,-0.576333,1.601673,-1.660184,-1.234237
3.84,3.046975,-0.659282,-0.576333,1.601673,-1.660184,-1.234237
3.86,3.047739,-0.672299,-0.56874,1.600936,-1.659629,-1.239702
3.88,3.048396,-0.682762,-0.565843,1.60005,-1.659234,-1.247313
3.9,3.048396,-0.682762,-0.565843,1.60005,-1.659234,-1.247313
3.92,3.049214,-0.69448,-0.568638,1.598508,-1.658873,-1.261899
3.94,3.049595,-0.69932,-0.573006,1.597579,-1.658762,-1.27115
3.96,3.049595,-0.69932,-0.573006,1.597579,-1.658762,-1.27115
3.98,3.050201,-0.705909,-0.5856,1.595711,-1.658682,-1.290415
4.0,3.050553,-0.708983,-0.597079,1.594331,-1.658698,-1.305029
4.02,3.050553,-0.708983,-0.597079,1.594331,-1.658698,-1.305029
4.04,3.050899,-0.711237,-0.612784,1.592656,-1.658775,-1.32306
4.06,3.051244,-0.712454,-0.635025,1.590499,-1.658933,-1.346612
4.08,3.051254,-0.712473,-0.635789,1.590428,-1.658939,-1.347397
4.1,3.051254,-0.712473,-0.635789,1.590428,-1.658939,-1.347397
4.12,3.051428,-0.712433,-0.651489,1.589003,-1.659069,-1.36312
4.14,3.051659,-0.711125,-0.68168,1.586392,-1.659337,-1.392115
4.16,3.051684,-0.710833,-0.686129,1.586018,-1.659377,-1.396288
4.18,3.051684,-0.710833,-0.686129,1.586018,-1.659377,-1.396288
4.2,3.051754,-0.709596,-0.701829,1.584718,-1.659522,-1.410809
4.22,3.051829,-0.706088,-0.736475,1.581926,-1.659845,-1.442068
4.24,3.051833,-0.70508,-0.745083,1.581245,-1.659925,-1.449698
4.26,3.051833,-0.70508,-0.745083,1.581245,-1.659925,-1.449698
4.28,3.051825,-0.703103,-0.760783,1.580016,-1.66007,-1.463476
4.3,3.051739,-0.697866,-0.797968,1.577152,-1.660412,-1.495549
4.32,3.051693,-0.696018,-0.810019,1.576236,-1.660521,-1.505794
4.34,3.051693,-0.696018,-0.810019,1.576236,-1.660521,-1.505794
4.36,3.051618,-0.693499,-0.825719,1.575051,-1.660663,-1.519027
4.38,3.051371,-0.686842,-0.864325,1.572168,-1.661006,-1.551105
4.4,3.051257,-0.684186,-0.878788,1.571099,-1.661133,-1.562961
4.42,3.051257,-0.684186,-0.878788,1.571099,-1.661133,-1.562961
4.44,3.051118,-0.681196,-0.894488,1.569944,-1.661271,-1.575723
4.46,3.05071,-0.673264,-0.933815,1.567076,-1.661614,-1.607247
4.48,3.050521,-0.669886,-0.94967,1.565928,-1.661752,-1.619777
4.5,3.050521,-0.669886,-0.949671,1.565928,-1.661752,-1.619777
4.52,3.050521,-0.669886,-0.949671,1.565928,-1.661752,-1.619777
4.54,3.050319,-0.666426,-0.965371,1.564797,-1.66189,-1.632069
4.56,3.049747,-0.657233,-1.004935,1.561967,-1.662242,-1.662571
4.58,3.049484,-0.653232,-1.02127,1.560807,-1.662391,-1.674958
4.6,3.049484,-0.65323,-1.021276,1.560807,-1.662391,-1.674963
4.62,3.049484,-0.65323,-1.021276,1.560807,-1.662391,-1.674963
4.64,3.049215,-0.649253,-1.036976,1.559697,-1.662536,-1.686737
4.66,3.048475,-0.638723,-1.076394,1.556931,-1.662916,-1.715754
4.68,3.048146,-0.634202,-1.092433,1.555815,-1.663078,-1.727325
4.7,3.048146,-0.634201,-1.092435,1.555815,-1.663078,-1.727326
4.72,3.048146,-0.634201,-1.092435,1.555815,-1.663078,-1.727326
4.74,3.047806,-0.629619,-1.108135,1.554728,-1.663243,-1.738496
4.76,3.046893,-0.617612,-1.147054,1.552056,-1.663678,-1.765535
4.78,3.046512,-0.612701,-1.162108,1.551033,-1.66386,-1.775727
4.8,3.046512,-0.612701,-1.162108,1.551033,-1.66386,-1.775727
4.82,3.046095,-0.60739,-1.177808,1.549973,-1.664059,-1.786167
4.84,3.045006,-0.593727,-1.215852,1.547435,-1.664586,-1.810673
4.86,3.044593,-0.588602,-1.229313,1.546548,-1.664791,-1.819053
4.88,3.044593,-0.588602,-1.229313,1.546548,-1.664791,-1.819053
4.9,3.044089,-0.582392,-1.245013,1.545524,-1.665046,-1.828594
4.92,3.042822,-0.566888,-1.281728,1.54317,-1.665711,-1.849925
4.94,3.042405,-0.561797,-1.293068,1.542457,-1.665939,-1.856211
4.96,3.042405,-0.561797,-1.293068,1.542457,-1.665939,-1.856211
4.98,3.041801,-0.554457,-1.308768,1.541483,-1.666278,-1.864622
5.0,3.040361,-0.536961,-1.343564,1.539385,-1.667131,-1.882035
5.02,3.039974,-0.53225,-1.35235,1.538871,-1.667372,-1.886139
5.04,3.039974,-0.53225,-1.35235,1.538871,-1.667372,-1.886139
5.06,3.039251,-0.523454,-1.368049,1.537971,-1.667836,-1.893093
5.08,3.037653,-0.503935,-1.400112,1.536223,-1.668928,-1.90574
5.1,3.037337,-0.500054,-1.406068,1.535914,-1.669155,-1.907835
5.12,3.037337,-0.500054,-1.406068,1.535914,-1.669155,-1.907835
5.14,3.036464,-0.489307,-1.421767,1.53513,-1.669805,-1.912837
5.16,3.034749,-0.468032,-1.449927,1.533857,-1.671171,-1.91981
5.18,3.034545,-0.465489,-1.453061,1.533727,-1.67134,-1.92041
5.2,3.034545,-0.465489,-1.453061,1.533727,-1.67134,-1.92041
5.22,3.033501,-0.452395,-1.468259,1.533153,-1.672243,-1.922561
5.24,3.031795,-0.430772,-1.490497,1.532498,-1.673821,-1.923239
5.26,3.031662,-0.429079,-1.492108,1.532461,-1.673948,-1.923162
5.28,3.031662,-0.429079,-1.492108,1.532461,-1.673948,-1.923162
5.3,3.030642,-0.415986,-1.503694,1.532264,-1.674963,-1.921685
5.32,3.028923,-0.393645,-1.520613,1.532247,-1.676787,-1.916298
5.34,3.02877,-0.391636,-1.521976,1.532263,-1.676956,-1.915655
5.36,3.02877,-0.391636,-1.521976,1.532263,-1.676956,-1.915655
5.38,3.027777,-0.378545,-1.529984,1.532473,-1.678085,-1.910583
5.4,3.026111,-0.35626,-1.540692,1.533184,-1.680096,-1.899006
5.42,3.025964,-0.35428,-1.541478,1.533267,-1.68028,-1.89781
5.44,3.025964,-0.35428,-1.541478,1.533267,-1.68028,-1.89781
5.46,3.025002,-0.341192,-1.545709,1.533941,-1.68152,-1.88894
5.48,3.023464,-0.319937,-1.549434,1.535439,-1.683615,-1.871364
5.5,3.023355,-0.318417,-1.549558,1.535565,-1.683768,-1.869963
5.52,3.023355,-0.318417,-1.549558,1.535565,-1.683768,-1.869963
5.54,3.022426,-0.305334,-1.549411,1.536807,-1.685112,-1.856686
5.56,3.021108,-0.286399,-1.545609,1.539084,-1.687123,-1.833852
5.58,3.021058,-0.285664,-1.545378,1.539184,-1.687202,-1.832881
5.6,3.021058,-0.285664,-1.545378,1.539184,-1.687202,-1.832881
5.62,3.020192,-0.272914,-1.539607,1.541148,-1.688603,-1.814267
5.64,3.019209,-0.258041,-1.528681,1.544001,-1.690283,-1.788322
5.66,3.019189,-0.257723,-1.528396,1.544069,-1.690319,-1.787716
5.68,3.019189,-0.257723,-1.528396,1.544069,-1.690319,-1.787716
5.7,3.018597,-0.24845,-1.518156,1.546304,-1.691393,-1.768083
5.72,3.017889,-0.236811,-1.49955,1.549866,-1.69277,-1.737637
5.74,3.017854,-0.236227,-1.49841,1.550072,-1.69284,-1.735901
5.76,3.017854,-0.236227,-1.49841,1.550072,-1.69284,-1.735901
5.78,3.017528,-0.23046,-1.484689,1.552422,-1.693538,-1.716277
5.8,3.017163,-0.223179,-1.458319,1.55655,-1.694438,-1.682378
5.82,3.017139,-0.22261,-1.455533,1.556964,-1.69451,-1.678998
5.84,3.017139,-0.22261,-1.455533,1.556964,-1.69451,-1.678998
5.86,3.017054,-0.220191,-1.43983,1.559216,-1.69482,-1.660739
5.88,3.017069,-0.217972,-1.40697,1.563603,-1.695126,-1.625389
5.9,3.017097,-0.217895,-1.400272,1.564452,-1.695143,-1.618561
5.92,3.017097,-0.217895,-1.400272,1.564452,-1.695143,-1.618561
5.94,3.017195,-0.218218,-1.384571,1.566381,-1.695123,-1.603063
5.96,3.017573,-0.221144,-1.346609,1.570767,-1.694815,-1.567755
5.98,3.017744,-0.222782,-1.333293,1.572223,-1.694634,-1.555986
6.0,3.017744,-0.222782,-1.333293,1.572223,-1.694634,-1.555986
6.02,3.01797,-0.225114,-1.317591,1.573883,-1.694374,-1.542514
6.04,3.018664,-0.232888,-1.276174,1.578023,-1.693499,-1.508618
6.06,3.01905,-0.237481,-1.25579,1.579942,-1.692983,-1.492713
6.08,3.019056,-0.237563,-1.25544,1.579975,-1.692974,-1.492442
6.1,3.019056,-0.237563,-1.25544,1.579975,-1.692974,-1.492442
6.12,3.019372,-0.241443,-1.23974,1.581398,-1.692538,-1.480538
6.14,3.020316,-0.25349,-1.196009,1.585159,-1.691197,-1.448635
6.16,3.020929,-0.261617,-1.169482,1.5873,-1.690301,-1.430113
6.18,3.020973,-0.262203,-1.167615,1.587448,-1.690237,-1.428825
6.2,3.020973,-0.262203,-1.167615,1.587448,-1.690237,-1.428825
6.22,3.021349,-0.267317,-1.151915,1.588661,-1.689679,-1.418171
6.24,3.022473,-0.283009,-1.10667,1.591983,-1.687987,-1.388438
6.26,3.023293,-0.294857,-1.07483,1.594169,-1.686732,-1.368332
6.28,3.023401,-0.296436,-1.070681,1.594448,-1.686566,-1.365748
6.3,3.023401,-0.296436,-1.070681,1.594448,-1.686566,-1.365748
6.32,3.023814,-0.302551,-1.054981,1.595473,-1.685928,-1.356112
6.34,3.025049,-0.321294,-1.008774,1.598346,-1.684001,-1.328509
6.36,3.02604,-0.336862,-0.972257,1.600465,-1.682438,-1.307464
6.38,3.026228,-0.339863,-0.965357,1.600853,-1.682139,-1.303547
6.4,3.026228,-0.339863,-0.965357,1.600853,-1.682139,-1.303547
6.42,3.026658,-0.346802,-0.949657,1.601714,-1.681456,-1.294749
6.44,3.027941,-0.368061,-0.902875,1.60416,-1.6794,-1.269125
6.46,3.029059,-0.38728,-0.862095,1.606149,-1.677591,-1.247489
6.48,3.029333,-0.392083,-0.852079,1.60662,-1.677145,-1.242258
6.5,3.029333,-0.392083,-0.852079,1.60662,-1.677145,-1.242258
6.52,3.029761,-0.399702,-0.836379,1.607339,-1.676446,-1.234152
6.54,3.031035,-0.422988,-0.789317,1.609401,-1.67435,-1.210308
6.56,3.032234,-0.445834,-0.744376,1.611241,-1.672355,-1.188157
6.58,3.032593,-0.452855,-0.730761,1.611777,-1.671753,-1.181548
6.6,3.032593,-0.452855,-0.730761,1.611777,-1.671753,-1.181548
6.62,3.033003,-0.461026,-0.715061,1.612378,-1.671061,-1.174004
6.64,3.034215,-0.485867,-0.667962,1.614114,-1.668998,-1.151704
6.66,3.035451,-0.512481,-0.618467,1.615828,-1.66686,-1.128787
6.68,3.035894,-0.522346,-0.600326,1.616433,-1.666084,-1.120499
6.7,3.035896,-0.522397,-0.600231,1.616436,-1.66608,-1.120455
6.72,3.035896,-0.522397,-0.600231,1.616436,-1.66608,-1.120455
6.74,3.036273,-0.530991,-0.584531,1.616946,-1.665414,-1.11334
6.76,3.037373,-0.556978,-0.537432,1.618432,-1.663437,-1.092205
6.78,3.038599,-0.587802,-0.482203,1.620094,-1.661168,-1.067779
6.8,3.039118,-0.601528,-0.457767,1.620808,-1.660181,-1.057061
6.82,3.039143,-0.602211,-0.456551,1.620843,-1.660132,-1.056529
6.84,3.039143,-0.602211,-0.456551,1.620843,-1.660132,-1.056529
6.86,3.039466,-0.611056,-0.440851,1.621295,-1.659506,-1.049669
6.88,3.040393,-0.637642,-0.393753,1.622631,-1.657653,-1.029146
6.9,3.041549,-0.674151,-0.329069,1.624439,-1.655179,-1.000959
6.92,3.042141,-0.694845,-0.292224,1.625471,-1.653805,-0.984802
6.94,3.042252,-0.698836,-0.285104,1.625671,-1.653541,-0.981672
6.96,3.042252,-0.698836,-0.285104,1.625671,-1.653541,-0.981672
6.98,3.04248,-0.707588,-0.269404,1.626116,-1.652967,-0.974721
7.0,3.04311,-0.733637,-0.222305,1.627473,-1.651266,-0.953664
7.02,3.043898,-0.774347,-0.146811,1.629764,-1.648613,-0.918866
7.04,3.04429,-0.804889,-0.087744,1.631713,-1.646584,-0.890327
7.06,3.04444,-0.818988,-0.060075,1.632651,-1.645639,-0.876751
7.08,3.044452,-0.82015,-0.057795,1.632729,-1.645561,-0.875631
7.1,3.044452,-0.82015,-0.057795,1.632729,-1.645561,-0.875631
7.12,3.044698,-0.81594,-0.073495,1.631706,-1.646073,-0.887145
7.14,3.045744,-0.807585,-0.12037,1.628123,-1.647537,-0.925757
7.16,3.04801,-0.815026,-0.170264,1.622357,-1.648823,-0.983281
7.18,3.050583,-0.842886,-0.190029,1.617243,-1.648992,-1.0311
7.2,3.053065,-0.886221,-0.178609,1.613504,-1.648272,-1.063178
7.22,3.05514,-0.939449,-0.13644,1.61165,-1.646918,-1.074337
7.24,3.056188,-0.978914,-0.08969,1.611698,-1.645699,-1.067075
7.26,3.056483,-0.993635,-0.069043,1.611999,-1.645197,-1.061148
7.28,3.056489,-0.993914,-0.068651,1.612004,-1.645187,-1.061034
7.3,3.061412,-1.042405,-0.231461,1.593963,-1.647507,-1.272979
7.32,3.061389,-1.036612,-0.247161,1.593202,-1.64775,-1.282913
7.34,3.061312,-1.019482,-0.294261,1.590896,-1.648469,-1.312964
7.36,3.061136,-0.992973,-0.371731,1.586931,-1.649576,-1.36407
7.38,3.060923,-0.971517,-0.438873,1.583334,-1.650451,-1.409892
7.4,3.060784,-0.960602,-0.474613,1.581363,-1.650883,-1.434793
7.42,3.060758,-0.958668,-0.481007,1.581008,-1.650959,-1.439267
7.44,3.060758,-0.958668,-0.481007,1.581008,-1.650959,-1.439267
7.46,3.060686,-0.954027,-0.496707,1.580125,-1.651136,-1.450361
7.48,3.060451,-0.940377,-0.543806,1.57744,-1.651645,-1.483915
7.5,3.060021,-0.92091,-0.613861,1.57334,-1.652319,-1.534667
7.52,3.059681,-0.908595,-0.659792,1.570586,-1.652705,-1.568396
7.54,3.059565,-0.904747,-0.674345,1.569705,-1.65282,-1.579137
7.56,3.059565,-0.904747,-0.674345,1.569705,-1.65282,-1.579137
7.58,3.05943,-0.900641,-0.690045,1.568746,-1.652936,-1.59077
7.6,3.058993,-0.888454,-0.737144,1.565842,-1.653259,-1.625802
7.62,3.058331,-0.872785,-0.798671,1.561983,-1.653615,-1.67182
7.64,3.057938,-0.86462,-0.830977,1.559927,-1.653773,-1.696047
7.66,3.057883,-0.863512,-0.835366,1.559647,-1.653794,-1.69934
7.68,3.057883,-0.863512,-0.835366,1.559647,-1.653794,-1.69934
7.7,3.057677,-0.859549,-0.851066,1.55864,-1.653862,-1.711119
7.72,3.057014,-0.847633,-0.898171,1.555595,-1.654043,-1.746436
7.74,3.056138,-0.833518,-0.953425,1.551979,-1.654211,-1.787726
7.76,3.055715,-0.827189,-0.977887,1.550364,-1.654273,-1.805927
7.78,3.055694,-0.826872,-0.97911,1.550283,-1.654276,-1.806836
7.8,3.055694,-0.826872,-0.97911,1.550283,-1.654276,-1.806836
7.82,3.055408,-0.822764,-0.99481,1.549242,-1.65431,-1.818472
7.84,3.054495,-0.810241,-1.04191,1.546099,-1.6544,-1.853181
7.86,3.053417,-0.796433,-1.092159,1.542717,-1.654476,-1.889764
7.88,3.052983,-0.791091,-1.111092,1.541436,-1.654502,-1.90341
7.9,3.052979,-0.791044,-1.111259,1.541425,-1.654502,-1.903529
7.92,3.052979,-0.791044,-1.111259,1.541425,-1.654502,-1.903529
7.94,3.052604,-0.786529,-1.126959,1.540359,-1.654522,-1.914759
7.96,3.051412,-0.77258,-1.174046,1.537149,-1.654584,-1.948033
7.98,3.050143,-0.758277,-1.219891,1.534007,-1.654653,-1.979706
8.0,3.04972,-0.753604,-1.234361,1.533012,-1.654678,-1.989546
8.02,3.04972,-0.753604,-1.234361,1.533012,-1.654678,-1.989546
8.04,3.049245,-0.748407,-1.250061,1.53193,-1.654709,-2.000095
8.06,3.047746,-0.732236,-1.296932,1.528695,-1.654827,-2.030932
8.08,3.046296,-0.716849,-1.338659,1.525808,-1.654977,-2.057397
8.1,3.045904,-0.712716,-1.349446,1.525061,-1.655024,-2.064083
8.12,3.045904,-0.712716,-1.349446,1.525061,-1.655024,-2.064083
8.14,3.045315,-0.706526,-1.365146,1.523973,-1.655103,-2.073641
8.16,3.043476,-0.687267,-1.411511,1.520765,-1.655396,-2.100889
8.18,3.041866,-0.670424,-1.449005,1.518176,-1.655723,-2.121658
8.2,3.041528,-0.666892,-1.456569,1.517655,-1.655799,-2.125714
8.22,3.041528,-0.666892,-1.456569,1.517655,-1.655799,-2.125714
8.24,3.040806,-0.659322,-1.472269,1.516576,-1.655976,-2.133895
8.26,3.038588,-0.635978,-1.517715,1.513471,-1.656612,-2.156147
8.28,3.036858,-0.617623,-1.550407,1.511263,-1.657212,-2.170597
8.3,3.036607,-0.614947,-1.555005,1.510955,-1.657306,-2.172535
8.32,3.036607,-0.614947,-1.555005,1.510955,-1.657306,-2.172535
8.34,3.035721,-0.605465,-1.570704,1.509908,-1.657661,-2.178808
8.36,3.033078,-0.57688,-1.614531,1.507039,-1.658873,-2.194213
8.38,3.031317,-0.557543,-1.641351,1.505337,-1.659818,-2.201802
8.4,3.031184,-0.556079,-1.643319,1.505213,-1.659893,-2.202314
8.42,3.031184,-0.556079,-1.643319,1.505213,-1.659893,-2.202314
8.44,3.030085,-0.543874,-1.659008,1.504248,-1.660549,-2.205863
8.46,3.027047,-0.509639,-1.699019,1.501905,-1.6626,-2.211815
8.48,3.025398,-0.490716,-1.71875,1.50084,-1.663866,-2.212715
8.5,3.025341,-0.490063,-1.719412,1.500805,-1.663911,-2.212728
8.52,3.025341,-0.490063,-1.719412,1.500805,-1.663911,-2.212728
8.54,3.024214,-0.476972,-1.732023,1.500171,-1.664848,-2.21231
8.56,3.021134,-0.440652,-1.763363,1.498804,-1.667674,-2.207497
8.58,3.019331,-0.418972,-1.779597,1.498264,-1.669519,-2.202145
8.6,3.019214,-0.417562,-1.780611,1.498234,-1.669642,-2.201754
8.62,3.019214,-0.417562,-1.780611,1.498234,-1.669642,-2.201754
8.64,3.018139,-0.404472,-1.789431,1.498024,-1.670821,-2.197537
8.66,3.015132,-0.367315,-1.811186,1.497843,-1.674388,-2.182274
8.68,3.013194,-0.342926,-1.822809,1.498076,-1.676908,-2.169589
8.7,3.013001,-0.340489,-1.823886,1.498111,-1.677165,-2.168236
8.72,3.013001,-0.340489,-1.823886,1.498111,-1.677165,-2.168236
8.74,3.011975,-0.327399,-1.829104,1.498381,-1.678586,-2.160402
8.76,3.009085,-0.29006,-1.840779,1.499626,-1.682843,-2.134823
8.78,3.007178,-0.264997,-1.845784,1.500901,-1.685874,-2.1148
8.8,3.006971,-0.262262,-1.846223,1.501058,-1.686211,-2.112506
8.82,3.006971,-0.262262,-1.846223,1.501058,-1.686211,-2.112506
8.84,3.005987,-0.249173,-1.847701,1.501909,-1.687859,-2.100903
8.86,3.003262,-0.212463,-1.848207,1.504907,-1.692665,-2.064682
8.88,3.001588,-0.189552,-1.845429,1.507312,-1.695804,-2.038947
8.9,3.001454,-0.187713,-1.845123,1.507519,-1.69606,-2.036798
8.92,3.001454,-0.187713,-1.845123,1.507519,-1.69606,-2.036798
8.94,3.000509,-0.174625,-1.842119,1.509141,-1.697908,-2.020661
8.96,2.998061,-0.140236,-1.829253,1.514279,-1.702917,-1.973223
8.98,2.996853,-0.122937,-1.819389,1.517461,-1.705521,-1.945919
9.0,2.996818,-0.122445,-1.819083,1.517556,-1.705596,-1.945117
9.02,2.996818,-0.122445,-1.819083,1.517556,-1.705596,-1.945117
9.04,2.99604,-0.111134,-1.810876,1.519943,-1.707332,-1.925482
9.06,2.994247,-0.084418,-1.78483,1.526725,-1.711521,-1.872349
9.08,2.993458,-0.072216,-1.768464,1.530575,-1.713477,-1.84355
9.1,2.993431,-0.071782,-1.767838,1.530719,-1.713547,-1.842481
9.12,2.993431,-0.071782,-1.767838,1.530719,-1.713547,-1.842481
9.14,2.992973,-0.064454,-1.755701,1.533413,-1.714735,-1.822846
9.16,2.991995,-0.047706,-1.718561,1.541086,-1.717483,-1.768446
9.18,2.991616,-0.040174,-1.69391,1.545796,-1.718735,-1.735934
9.2,2.991595,-0.039737,-1.692258,1.546104,-1.718808,-1.733823
9.22,2.991595,-0.039737,-1.692258,1.546104,-1.718808,-1.733823
9.24,2.991453,-0.036252,-1.676558,1.548951,-1.719391,-1.714434
9.26,2.991331,-0.030108,-1.631151,1.556692,-1.720426,-1.662315
9.28,2.99147,-0.028673,-1.598453,1.56186,-1.720673,-1.627795
9.3,2.991499,-0.028622,-1.593846,1.562566,-1.720682,-1.623085
9.32,2.991499,-0.028622,-1.593846,1.562566,-1.720682,-1.623085
9.34,2.991632,-0.028806,-1.578146,1.564918,-1.720655,-1.607392
9.36,2.992201,-0.031679,-1.531112,1.571594,-1.720188,-1.562732
9.38,2.992931,-0.037092,-1.487068,1.577379,-1.719306,-1.523671
9.4,2.993172,-0.03908,-1.474268,1.578985,-1.718983,-1.512741
9.42,2.993172,-0.03908,-1.474268,1.578985,-1.718983,-1.512741
9.44,2.993488,-0.041787,-1.458567,1.580903,-1.718545,-1.499607
9.46,2.994529,-0.051339,-1.411463,1.586373,-1.717011,-1.461663
9.48,2.995861,-0.064457,-1.357904,1.59212,-1.714935,-1.420824
9.5,2.996458,-0.07059,-1.335372,1.594402,-1.713976,-1.404271
9.52,2.996478,-0.070794,-1.334629,1.594477,-1.713944,-1.403728
9.54,2.996478,-0.070794,-1.334629,1.594477,-1.713944,-1.403728
9.56,2.996908,-0.075325,-1.318929,1.596007,-1.713241,-1.392458
9.58,2.998241,-0.089751,-1.271828,1.600401,-1.71103,-1.359503
9.6,3.000052,-0.110295,-1.210735,1.605648,-1.707951,-1.318639
9.62,3.001018,-0.121678,-1.178992,1.608191,-1.706279,-1.298136
9.64,3.001143,-0.123166,-1.174894,1.608515,-1.706062,-1.295509
9.66,3.001143,-0.123166,-1.174894,1.608515,-1.706062,-1.295509
9.68,3.001627,-0.129017,-1.159194,1.609714,-1.705214,-1.285595
9.7,3.003088,-0.147094,-1.112094,1.613168,-1.702632,-1.256394
9.72,3.005196,-0.174427,-1.044518,1.617732,-1.698835,-1.215939
9.74,3.006484,-0.19191,-1.003057,1.620327,-1.696471,-1.191854
9.76,3.006811,-0.196424,-0.99249,1.62097,-1.695867,-1.185776
9.78,3.006811,-0.196424,-0.99249,1.62097,-1.695867,-1.185776
9.8,3.007294,-0.203236,-0.97679,1.621896,-1.694966,-1.176853
9.82,3.00873,-0.223982,-0.92969,1.624577,-1.69226,-1.150405
9.84,3.010915,-0.257411,-0.856034,1.628464,-1.688033,-1.110065
9.86,3.012454,-0.282489,-0.802198,1.631098,-1.684963,-1.081245
9.88,3.01308,-0.293063,-0.779762,1.632155,-1.68369,-1.069362
9.9,3.0131,-0.293403,-0.77904,1.632189,-1.683649,-1.068979
9.92,3.0131,-0.293403,-0.77904,1.632189,-1.683649,-1.068979
9.94,3.013527,-0.300873,-0.76334,1.632905,-1.682764,-1.060736
9.96,3.014781,-0.323426,-0.71624,1.635003,-1.680122,-1.036157
9.98,3.016742,-0.361514,-0.637811,1.638302,-1.67579,-0.995781
10.0,3.018465,-0.398652,-0.56227,1.641299,-1.671706,-0.957366
10.02,3.019389,-0.420486,-0.51813,1.642987,-1.669361,-0.935059
10.04,3.019653,-0.426864,-0.50525,1.643476,-1.668679,-0.928557
10.06,3.019653,-0.426864,-0.50525,1.643476,-1.668679,-0.928557
10.08,3.019952,-0.434655,-0.48955,1.644061,-1.667859,-0.92065
10.1,3.020819,-0.458035,-0.44245,1.645803,-1.665412,-0.896938
10.12,3.021989,-0.49368,-0.37063,1.648416,-1.661744,-0.860782
10.14,3.022685,-0.518206,-0.321096,1.650202,-1.659254,-0.835792
10.16,3.022931,-0.52718,-0.302962,1.650854,-1.658346,-0.826638
10.18,3.022932,-0.527227,-0.302867,1.650858,-1.658341,-0.82659
